images/inst.svg

<svg xmlns="http://www.w3.org/2000/svg" xmlns:xlink="http://www.w3.org/1999/xlink" viewBox="0 0 48 48" version="1.1">
    <g id="surface1">
        <path style=" fill:#FFCC80;" d="M 6 18 L 6 37 C 6 39.761719 8.238281 42 11 42 L 37 42 C 39.761719 42 42 39.761719 42 37 L 42 18 Z "></path>
        <path style=" fill:#795548;" d="M 42 18 L 42 11 C 42 8.238281 39.761719 6 37 6 L 11 6 C 8.238281 6 6 8.238281 6 11 L 6 18 Z "></path>
        <path style=" fill:#37474F;" d="M 32 25 C 32 29.417969 28.417969 33 24 33 C 19.582031 33 16 29.417969 16 25 C 16 20.582031 19.582031 17 24 17 C 28.417969 17 32 20.582031 32 25 Z "></path>
        <path style=" fill:#FFF3E0;" d="M 24 34 C 19.039063 34 15 29.964844 15 25 C 15 20.039063 19.039063 16 24 16 C 28.964844 16 33 20.039063 33 25 C 33 29.964844 28.964844 34 24 34 Z M 24 18 C 20.140625 18 17 21.140625 17 25 C 17 28.859375 20.140625 32 24 32 C 27.859375 32 31 28.859375 31 25 C 31 21.140625 27.859375 18 24 18 Z "></path>
        <path style=" fill:#546E7A;" d="M 29 25 C 29 27.761719 26.761719 30 24 30 C 21.238281 30 19 27.761719 19 25 C 19 22.238281 21.238281 20 24 20 C 26.761719 20 29 22.238281 29 25 Z "></path>
        <path style=" fill:#BBDEFB;" d="M 24 23 C 24 24.105469 23.105469 25 22 25 C 20.894531 25 20 24.105469 20 23 C 20 21.894531 20.894531 21 22 21 C 23.105469 21 24 21.894531 24 23 Z "></path>
        <path style=" fill:#F44336;" d="M 8 7.023438 L 8 18 L 10 18 L 10 6.101563 C 9.257813 6.253906 8.585938 6.582031 8 7.023438 Z "></path>
        <path style=" fill:#FFEB3B;" d="M 11 6 C 10.65625 6 10.324219 6.035156 10 6.101563 L 10 18 L 12 18 L 12 6 Z "></path>
        <path style=" fill:#8BC34A;" d="M 12 6 L 14 6 L 14 18 L 12 18 Z "></path>
        <path style=" fill:#2196F3;" d="M 14 6 L 16 6 L 16 18 L 14 18 Z "></path>
        <path style=" fill:#3E2723;" d="M 32 9 L 38 9 L 38 15 L 32 15 Z "></path>
        <path style=" fill:#3E2723;" d="M 16 17.5 C 16 18.328125 15.328125 19 14.5 19 L 9.5 19 C 8.671875 19 8 18.328125 8 17.5 C 8 16.671875 8.671875 16 9.5 16 L 14.5 16 C 15.328125 16 16 16.671875 16 17.5 Z "></path>
    </g>
</svg>

<svg xmlns="http://www.w3.org/2000/svg" viewBox="0 0 48 48"><path d="M6 18v19a5 5 0 0 0 5 5h26a5 5 0 0 0 5-5V18z" fill="#ffcc80"/><path d="M42 18v-7a5 5 0 0 0-5-5H11a5 5 0 0 0-5 5v7z" fill="#795548"/><path d="M32 25a8 8 0 1 1-16 0 8 8 0 0 1 16 0z" fill="#37474f"/><path d="M24 34c-4.96 0-9-4.035-9-9 0-4.96 4.04-9 9-9 4.965 0 9 4.04 9 9 0 4.965-4.035 9-9 9zm0-16c-3.86 0-7 3.14-7 7s3.14 7 7 7 7-3.14 7-7-3.14-7-7-7z" fill="#fff3e0"/><path d="M29 25a5 5 0 1 1-10 0 5 5 0 0 1 10 0z" fill="#546e7a"/><path d="M24 23a1.999 1.999 0 1 1-4 0 1.999 1.999 0 1 1 4 0z" fill="#bbdefb"/><path d="M8 7.023V18h2V6.102a4.991 4.991 0 0 0-2 .921z" fill="#f44336"/><path d="M11 6c-.344 0-.676.035-1 .102V18h2V6z" fill="#ffeb3b"/><path d="M12 6h2v12h-2z" fill="#8bc34a"/><path d="M14 6h2v12h-2z" fill="#2196f3"/><path d="M32 9h6v6h-6zm-16 8.5a1.5 1.5 0 0 1-1.5 1.5h-5a1.5 1.5 0 0 1 0-3h5a1.5 1.5 0 0 1 1.5 1.5z" fill="#3e2723"/></svg>
